src/assets/bold/lm-file-search-bold.svg

<svg width="24" height="24" viewBox="0 0 24 24" fill="none" xmlns="http://www.w3.org/2000/svg" fill="currentColor">
<path d="M16.4999 14.25C17.3618 14.25 18.1882 14.5927 18.7977 15.2021C19.4072 15.8116 19.7499 16.638 19.7499 17.5C19.7499 18.1073 19.5791 18.6964 19.2655 19.2051L21.5302 21.4697C21.823 21.7626 21.823 22.2374 21.5302 22.5303C21.2373 22.8231 20.7625 22.8232 20.4696 22.5303L18.205 20.2656C17.6963 20.5792 17.1071 20.75 16.4999 20.75C15.638 20.75 14.8115 20.4073 14.202 19.7979C13.5926 19.1884 13.2499 18.3619 13.2499 17.5C13.2499 16.6381 13.5926 15.8116 14.202 15.2021C14.8115 14.5927 15.638 14.25 16.4999 14.25ZM11.9999 2.25C12.7292 2.25 13.4285 2.53994 13.9442 3.05566C14.2789 3.3903 14.5165 3.80267 14.6434 4.25H15.9999C16.7292 4.25 17.4285 4.53994 17.9442 5.05566C18.4599 5.57139 18.7499 6.27065 18.7499 7V12C18.7499 12.4142 18.4141 12.75 17.9999 12.75C17.5857 12.75 17.2499 12.4142 17.2499 12V7C17.2499 6.66848 17.1181 6.35063 16.8837 6.11621C16.6492 5.88179 16.3314 5.75 15.9999 5.75H14.6434C14.5165 6.19733 14.2789 6.6097 13.9442 6.94434C13.4285 7.46006 12.7292 7.75 11.9999 7.75H9.99988C9.27053 7.75 8.57127 7.46006 8.05554 6.94434C7.7209 6.6097 7.48325 6.19733 7.35632 5.75H5.99988C5.66836 5.75 5.35051 5.88179 5.11609 6.11621C4.88167 6.35063 4.74988 6.66848 4.74988 7V19C4.74988 19.3315 4.88167 19.6494 5.11609 19.8838C5.35051 20.1182 5.66836 20.25 5.99988 20.25H11.6971C12.1112 20.2501 12.4471 20.5859 12.4471 21C12.4471 21.4141 12.1112 21.7499 11.6971 21.75H5.99988C5.27053 21.75 4.57127 21.4601 4.05554 20.9443C3.53982 20.4286 3.24988 19.7293 3.24988 19V7C3.24988 6.27065 3.53982 5.57139 4.05554 5.05566C4.57127 4.53994 5.27053 4.25 5.99988 4.25H7.35632C7.48325 3.80267 7.7209 3.3903 8.05554 3.05566C8.57127 2.53994 9.27053 2.25 9.99988 2.25H11.9999ZM16.4999 15.75C16.0358 15.75 15.5907 15.9345 15.2626 16.2627C14.9344 16.5909 14.7499 17.0359 14.7499 17.5C14.7499 17.9641 14.9344 18.4091 15.2626 18.7373C15.5907 19.0655 16.0358 19.25 16.4999 19.25C16.964 19.25 17.409 19.0655 17.7372 18.7373C18.0654 18.4091 18.2499 17.9641 18.2499 17.5C18.2499 17.0359 18.0654 16.5909 17.7372 16.2627C17.409 15.9345 16.964 15.75 16.4999 15.75ZM10.9999 14.25C11.4141 14.25 11.7499 14.5858 11.7499 15C11.7499 15.4142 11.4141 15.75 10.9999 15.75H7.99988C7.58566 15.75 7.24988 15.4142 7.24988 15C7.24988 14.5858 7.58566 14.25 7.99988 14.25H10.9999ZM11.9999 10.25C12.4141 10.25 12.7499 10.5858 12.7499 11C12.7499 11.4142 12.4141 11.75 11.9999 11.75H7.99988C7.58566 11.75 7.24988 11.4142 7.24988 11C7.24988 10.5858 7.58566 10.25 7.99988 10.25H11.9999ZM9.99988 3.75C9.66836 3.75 9.35051 3.88179 9.11609 4.11621C8.88167 4.35063 8.74988 4.66848 8.74988 5C8.74988 5.33152 8.88167 5.64937 9.11609 5.88379C9.35051 6.11821 9.66836 6.25 9.99988 6.25H11.9999C12.3314 6.25 12.6492 6.11821 12.8837 5.88379C13.1181 5.64937 13.2499 5.33152 13.2499 5C13.2499 4.66848 13.1181 4.35063 12.8837 4.11621C12.6492 3.88179 12.3314 3.75 11.9999 3.75H9.99988Z" fill="black"/>
</svg>

<svg xmlns="http://www.w3.org/2000/svg" width="24" height="24" fill="currentColor" viewBox="0 0 24 24">
  <path d="M16.5 14.25a3.25 3.25 0 0 1 2.765 4.955l2.265 2.265a.75.75 0 0 1-1.06 1.06l-2.265-2.264A3.249 3.249 0 1 1 16.5 14.25Zm-4.5-12a2.75 2.75 0 0 1 2.643 2H16A2.75 2.75 0 0 1 18.75 7v5a.75.75 0 0 1-1.5 0V7A1.25 1.25 0 0 0 16 5.75h-1.357a2.747 2.747 0 0 1-2.643 2h-2a2.75 2.75 0 0 1-2.644-2H6A1.25 1.25 0 0 0 4.75 7v12A1.25 1.25 0 0 0 6 20.25h5.697a.75.75 0 0 1 0 1.5H6A2.75 2.75 0 0 1 3.25 19V7A2.75 2.75 0 0 1 6 4.25h1.356a2.747 2.747 0 0 1 2.644-2h2Zm4.5 13.5a1.75 1.75 0 1 0 0 3.5 1.75 1.75 0 0 0 0-3.5Zm-5.5-1.5a.75.75 0 0 1 0 1.5H8a.75.75 0 0 1 0-1.5h3Zm1-4a.75.75 0 0 1 0 1.5H8a.75.75 0 0 1 0-1.5h4Zm-2-6.5a1.25 1.25 0 0 0 0 2.5h2a1.25 1.25 0 0 0 0-2.5h-2Z"/>
</svg>
